X:40
T:When the Battle's O'er
T:When the Battle Is Over
R:march
C:William Robb (1863-1909), Scotland
O:Scottish
Z:id:hn-march-40
M:3/4
L:1/8
K:Amix
A>B | c2 a2 f>e | c2 A2 A>B | c2 e>c BA | B4 A>B |
c2 a2 f>e | c2 A2 A>B | c2 e>c B>c | A4 :|
|: e>c | B2 A2 a>g | f2 e2 A>B | c2 e>c BA | B4 e>c |
B2 A2 a>g | f2 e2 A>B | c2 e>c B>c | A4 :|

